vsi/file-pdf_dark.svg

<svg viewBox="0 0 16 16" fill="none" xmlns="http://www.w3.org/2000/svg" height="1em" width="1em">
  <path fill-rule="evenodd" clip-rule="evenodd" d="M13.85 4.44L10.57 1.14L10.22 1H2.5L2 1.5V7H3V2H9V5.5L9.5 6H13V7H14V4.8L13.85 4.44ZM10 5V2L13 5H10ZM2.5 8L2 8.5V14.5L2.5 15H13.5L14 14.5V8.5L13.5 8H2.5ZM13 13V14H3V9H13V13ZM5 12H4.68V13H4V10H5.06C5.81 10 6.19 10.36 6.19 11C6.19194 11.136 6.16433 11.2708 6.10908 11.3951C6.05383 11.5195 5.97226 11.6303 5.87 11.72C5.62218 11.9132 5.31397 12.0124 5 12ZM4.94 10.55H4.68V11.48H4.94C5.3 11.48 5.48 11.32 5.48 11.01C5.48 10.7 5.3 10.55 4.94 10.55ZM9 12.58C9.14768 12.4345 9.26317 12.2597 9.33896 12.0667C9.41476 11.8738 9.44918 11.6671 9.44 11.46C9.44 10.46 8.91 10 7.84 10H6.78V13H7.84C8.05153 13.0102 8.26298 12.9784 8.46211 12.9063C8.66123 12.8342 8.84406 12.7233 9 12.58ZM7.45 12.45V10.55H7.78C7.90754 10.5419 8.0354 10.5599 8.15576 10.6029C8.27612 10.6459 8.38644 10.7129 8.48 10.8C8.56476 10.889 8.6306 10.9943 8.67357 11.1094C8.71654 11.2246 8.73573 11.3472 8.73 11.47C8.74498 11.7336 8.65511 11.9924 8.48 12.19C8.38845 12.2776 8.28013 12.3458 8.16156 12.3905C8.04298 12.4352 7.9166 12.4554 7.79 12.45H7.45ZM11.9 11.84H10.93V13H10.25V10H11.99V10.55H10.93V11.29H11.9V11.84Z" fill="#C5C5C5"/>
</svg>

<svg viewBox="0 0 16 16" fill="none" xmlns="http://www.w3.org/2000/svg" height="1em" width="1em">
  <path fill-rule="evenodd" clip-rule="evenodd" d="m13.85 4.44-3.28-3.3-.35-.14H2.5l-.5.5V7h1V2h6v3.5l.5.5H13v1h1V4.8l-.15-.36ZM10 5V2l3 3h-3ZM2.5 8l-.5.5v6l.5.5h11l.5-.5v-6l-.5-.5h-11ZM13 13v1H3V9h10v4Zm-8-1h-.32v1H4v-3h1.06c.75 0 1.13.36 1.13 1a.94.94 0 0 1-.32.72A1.33 1.33 0 0 1 5 12Zm-.06-1.45h-.26v.93h.26c.36 0 .54-.16.54-.47 0-.31-.18-.46-.54-.46ZM9 12.58a1.48 1.48 0 0 0 .44-1.12c0-1-.53-1.46-1.6-1.46H6.78v3h1.06A1.6 1.6 0 0 0 9 12.58Zm-1.55-.13v-1.9h.33a.94.94 0 0 1 .7.25.91.91 0 0 1 .25.67 1 1 0 0 1-.25.72.94.94 0 0 1-.69.26h-.34Zm4.45-.61h-.97V13h-.68v-3h1.74v.55h-1.06v.74h.97v.55Z" fill="#C5C5C5"/>
</svg>
